X: 3775
T: Birthday, The
R: jig
M: 6/8
K: Amajor
|:~A3 ABc|ecB ABc|dBB Bcd|efe efg|
a2 f ecA|def ecA|def efg|1 aec AEF:|2 aec Ace||
|:a2 b aec|def ecA|def efg|agf efg|
a2 b aec|def ecA|def efg|1 aec Ace:|2 aec AEF||

